X: 25
M:6/8
L:1/8
K:G
|:"tr"B3 "tr"c3|BGG ABd|g3 gdB|dgg fdc|
"tr"B3 "tr"c3|BGG ABd|fef gdB|EDE FGA:||

